src/assets/illustrations/case-studies/beyond-contracts/data-cluster-02.svg

<svg width="52" height="71" viewBox="0 0 52 71" fill="none" xmlns="http://www.w3.org/2000/svg">
<path d="M0.0197754 17.5234L27.4707 29.4429V63.0341L0.0197754 50.7535V17.5234Z" fill="#F2E5D7"/>
<g style="mix-blend-mode:multiply">
<path d="M51.3096 20.0527L28.193 29.4438V63.035L51.3096 52.1992V20.0527Z" fill="#E3CDB7"/>
</g>
<path d="M0.0212402 17.1973L24.9438 8.13069L51.3096 19.6918L27.8319 29.0829L0.0212402 17.1973Z" fill="#F2E5D7"/>
<g style="mix-blend-mode:multiply">
<path d="M0.0197529 50.5676L24.9389 42.0802L51.6674 52.0103L27.8285 63.2074L0.0197529 50.5676Z" fill="#F2E5D7"/>
</g>
</svg>

<svg width="52" height="71" fill="none" xmlns="http://www.w3.org/2000/svg"><path d="M.02 17.523l27.45 11.92v33.591L.02 50.754v-33.23z" fill="#F2E5D7"/><path d="M51.31 20.053l-23.117 9.39v33.592L51.31 52.199V20.053z" fill="#E3CDB7"/><path d="M.021 17.197l24.923-9.066L51.31 19.69l-23.478 9.392L.022 17.197zM.02 50.567l24.919-8.487 26.728 9.93-23.839 11.197L.02 50.567z" fill="#F2E5D7"/></svg>
